X:1
T: The Dietitian
C:C Sherrit
R:Jig
Q:180
K:D
M:6/8
L:1/16
|:A2|d2A2d2 f2e2d2|(3BcdB2 A2F2E2|D2C2D2 F2E2D2|E2A2^G2 A4A2|
d2A2d2 f2e2d2|(3BcdB2 A2F2D2|G2A2B2 A2d2f2|1e2f2e2 d4A2:|2e2f2e2 d4c2|
|:B2F2B2 d2c2B2|^A2F2^A2 c2B2^A2|B2F2B2 d2c2B2|^A2f2=f2 ^f4f2|
g2f2e2 a2g2e2|f2d2B2 G2A2G2|F2B2d2 A2d2f2|1e2f2e2 d4c2:|2e2f2e2 d4||
